X:437
T:The Fox
C:Chris Thile
N:From the CD "Nickel Creek" Transcribed by Steve Terregino
R:bluegrass
L:1/8
Q:1/4=265
M:4/4
K:A
z2 EF AB cd | de ze ee Bd | cA BG A2 ee | ce ef ec Bc | dB ce AB ee | Bc ee {c}BA Bc | 
dD Ad fe de | Bc Ae BA Ge | Ae FA eA Ae | BA GE DE GB | c=G AB cd e=g | fA Da Df DA | 
ed cB Ae AB | Be de ce BG | Ae EF AF EC | [E2A,2] [eA][eA] A,A, [eA][eA] | z8 | 
z8 | 


